images/empty-star.svg

<svg fill="none" height="16" viewBox="0 0 16 16" width="16" xmlns="http://www.w3.org/2000/svg"><path d="m8.24034 12.2996-.24087-.1324-.24088.1324-2.82376 1.5523c-.36546.201-.80179-.1075-.73428-.519l.55059-3.35687.04103-.25015-.17752-.18094-2.37277-2.4185c-.28559-.29109-.12136-.78324.2818-.84449l3.23838-.49206.26336-.04001.1137-.2409 1.40818-2.98358c.18035-.38212.72398-.38212.90433 0l1.40818 2.98358.1137.2409.26339.04001 3.2384.49206c.4031.06125.5673.5534.2818.84449l-2.3728 2.4185-.1775.18094.041.25015.5506 3.35687c.0675.4115-.3688.72-.7343.519z" stroke="#ffb547"/></svg>

<svg width="16" height="16" viewBox="0 0 16 16" fill="none" xmlns="http://www.w3.org/2000/svg">
<path d="M8.24034 12.2996L7.99947 12.1672L7.75859 12.2996L4.93483 13.8519C4.56937 14.0529 4.13304 13.7444 4.20055 13.3329L4.75114 9.97603L4.79217 9.72588L4.61465 9.54494L2.24188 7.12644C1.95629 6.83535 2.12052 6.3432 2.52368 6.28195L5.76206 5.78989L6.02542 5.74988L6.13912 5.50898L7.5473 2.5254C7.72765 2.14328 8.27128 2.14328 8.45163 2.5254L9.85981 5.50898L9.97351 5.74988L10.2369 5.78989L13.4753 6.28195C13.8784 6.3432 14.0426 6.83535 13.7571 7.12644L11.3843 9.54494L11.2068 9.72588L11.2478 9.97603L11.7984 13.3329C11.8659 13.7444 11.4296 14.0529 11.0641 13.8519L8.24034 12.2996Z" stroke="#FFB547"/>
</svg>
